svgs/light/stretcher.svg

<svg xmlns="http://www.w3.org/2000/svg" viewBox="0 0 640 512"><!--! Font Awesome Pro 6.3.0 by @fontawesome - https://fontawesome.com License - https://fontawesome.com/license (Commercial License) Copyright 2023 Fonticons, Inc. --><path d="M496 416c-8.578 0-16.52 2.434-23.49 6.377L394.7 364l62.92-47.19c7.062-5.312 8.5-15.34 3.219-22.41c-5.344-7.094-15.38-8.5-22.41-3.219L368 343.1L297.6 291.2c-7-5.25-17.06-3.875-22.41 3.219C269.9 301.5 271.3 311.5 278.4 316.8L341.3 364l-77.84 58.38C256.5 418.4 248.6 416 240 416C213.5 416 192 437.5 192 464S213.5 512 240 512S288 490.5 288 464c0-6.174-1.266-12.03-3.389-17.45L368 384l83.39 62.54C449.3 451.1 448 457.8 448 464c0 26.51 21.49 48 48 48s48-21.49 48-48S522.5 416 496 416zM240 480C231.2 480 224 472.8 224 464C224 455.2 231.2 448 239.1 448s16 7.162 16 16C255.1 472.8 248.8 480 240 480zM496 480c-8.836 0-16-7.164-16-16c0-8.838 7.164-16 16-16s16 7.162 16 16C512 472.8 504.8 480 496 480zM640 240c0 8.844-7.156 15.1-16 15.1L174.1 256C169.8 256 165.7 254.3 162.7 251.3l-158.1-160c-6.219-6.281-6.156-16.41 .125-22.62C11.03 62.38 21.16 62.5 27.38 68.75L180.8 224L624 223.1C632.8 223.1 640 231.2 640 240z"/></svg>

<svg xmlns="http://www.w3.org/2000/svg" viewBox="0 0 640 512"><!-- Font Awesome Pro 6.0.0-alpha2 by @fontawesome - https://fontawesome.com License - https://fontawesome.com/license (Commercial License) --><path d="M496 416C487.422 416 479.483 418.434 472.514 422.377L394.678 364L457.594 316.812C464.657 311.5 466.094 301.469 460.813 294.406C455.469 287.312 445.438 285.906 438.407 291.188L368 343.992L297.594 291.188C290.594 285.938 280.532 287.312 275.188 294.406C269.907 301.469 271.344 311.5 278.407 316.812L341.323 364L263.487 422.377C256.518 418.434 248.578 416 240 416C213.49 416 192 437.49 192 464S213.49 512 240 512S288 490.51 288 464C288 457.826 286.735 451.971 284.612 446.549L368 384.008L451.389 446.549C449.266 451.971 448 457.826 448 464C448 490.51 469.49 512 496 512S544 490.51 544 464S522.51 416 496 416ZM240 480C231.164 480 224 472.836 224 464C224 455.162 231.164 448 240 448S256 455.162 256 464C256 472.836 248.836 480 240 480ZM496 480C487.164 480 480 472.836 480 464C480 455.162 487.164 448 496 448S512 455.162 512 464C512 472.836 504.836 480 496 480ZM640 240C640 248.844 632.844 256 624 256H174.094C169.813 256 165.719 254.281 162.719 251.25L4.625 91.25C-1.593 84.969 -1.531 74.844 4.75 68.625C11.032 62.375 21.157 62.5 27.375 68.75L180.782 224H624C632.844 224 640 231.156 640 240Z"/></svg>
